icons/copilot.svg

<svg width="16" height="16" viewBox="0 0 16 16" fill="none" xmlns="http://www.w3.org/2000/svg">
<path d="M8.00914 2.58783C8.81285 2.58785 10.7605 2.74499 12.2279 4.29974C12.9975 5.11212 13.3211 6.22144 13.4574 7.77631C13.819 7.77634 14.1565 7.85674 14.3841 8.16693L14.8089 8.7431C14.9312 8.90902 14.9974 9.10733 14.9974 9.31342V10.8798C14.997 11.0819 14.8967 11.2789 14.7337 11.3984C12.8075 12.8086 10.4304 13.9433 8.00914 13.9433C5.3304 13.9433 2.6482 12.3994 1.28453 11.3984C1.12149 11.2789 1.02125 11.082 1.02086 10.8798V9.31342C1.0209 9.10735 1.08603 8.90803 1.20738 8.74213L1.63316 8.16693C1.861 7.85808 2.19988 7.77631 2.5609 7.77631C2.69715 6.22164 3.01919 5.11209 3.78941 4.29974C5.25693 2.74487 7.2055 2.58783 8.00914 2.58783ZM8.01012 6.88568C7.84427 6.88568 7.65293 6.89589 7.44957 6.91595C7.37796 7.18317 7.27208 7.42433 7.11754 7.57806C6.50607 8.18953 5.76823 8.28412 5.3734 8.28412C5.00209 8.28409 4.61277 8.206 4.29527 8.0058C3.99503 8.10448 3.70704 8.24707 3.68785 8.6015C3.65587 9.27196 3.65255 9.94211 3.64977 10.6122C3.64831 10.9484 3.64704 11.2846 3.64195 11.621C3.64326 11.8163 3.76118 11.9981 3.93883 12.079C5.38451 12.7377 6.75224 13.0693 8.01012 13.0693C9.2661 13.0692 10.6329 12.7376 12.0775 12.079C12.2554 11.9982 12.374 11.8164 12.3754 11.621C12.3927 10.6156 12.3783 9.60593 12.3304 8.6015H12.3314C12.3127 8.2449 12.0224 8.10481 11.7211 8.0058C11.4035 8.20497 11.0159 8.28405 10.6449 8.28412C10.2501 8.28412 9.51308 8.18952 8.90074 7.57806C8.74615 7.42434 8.64034 7.18321 8.56871 6.91595C8.38309 6.89708 8.19669 6.88659 8.01012 6.88568ZM6.53941 9.2851C6.85293 9.28529 7.10755 9.53896 7.10777 9.85248V10.9003C7.10771 11.214 6.85304 11.4685 6.53941 11.4687C6.22562 11.4687 5.97111 11.2141 5.97105 10.9003V9.85248C5.97128 9.53884 6.22572 9.2851 6.53941 9.2851ZM9.45055 9.2851C9.76424 9.2851 10.0187 9.53884 10.0189 9.85248V10.9003C10.0188 11.2141 9.76434 11.4687 9.45055 11.4687C9.13687 11.4686 8.88225 11.214 8.88219 10.9003V9.85248C8.88241 9.53893 9.13697 9.28523 9.45055 9.2851ZM5.46715 4.13373C4.85597 4.19485 4.34065 4.39542 4.07848 4.67474C3.51069 5.29494 3.63223 6.8682 3.95543 7.20013C4.19126 7.43596 4.63715 7.59269 5.11754 7.59271C5.48442 7.59271 6.18359 7.51391 6.76012 6.92865C7.01324 6.68396 7.17008 6.07292 7.15269 5.45306C7.13523 4.95519 6.9961 4.54381 6.78648 4.36908C6.55938 4.16818 6.04364 4.08133 5.46715 4.13373ZM10.5511 4.13373C9.9747 4.08133 9.45897 4.16824 9.2318 4.36908C9.02215 4.54378 8.88208 4.95516 8.86461 5.45306C8.84723 6.07302 9.00497 6.68405 9.25816 6.92865C9.83469 7.51391 10.5339 7.59271 10.9007 7.59271C11.3808 7.59263 11.826 7.43572 12.0619 7.20013C12.3851 6.8682 12.5076 5.29494 11.9398 4.67474C11.6777 4.39538 11.1623 4.19488 10.5511 4.13373ZM8.00914 5.64447C7.86939 5.64447 7.7033 5.65337 7.51988 5.67084C7.53734 5.76688 7.54631 5.8718 7.55504 5.98529C7.55504 6.06391 7.55498 6.14306 7.54625 6.23041C7.72088 6.21295 7.86942 6.21283 8.00914 6.21283C8.14885 6.21283 8.29738 6.21294 8.47203 6.23041C8.4633 6.14306 8.46324 6.06391 8.46324 5.98529C8.47197 5.87181 8.48094 5.76687 8.4984 5.67084C8.31501 5.65337 8.14888 5.64448 8.00914 5.64447Z" fill="#909090" fill-opacity="0.9"/>
</svg>

<svg xmlns="http://www.w3.org/2000/svg" width="16" height="16" fill="none" viewBox="0 0 16 16"><path fill="#909090" fill-opacity=".9" d="M8.01 2.588c.803 0 2.75.157 4.218 1.712.77.812 1.093 1.921 1.23 3.476.361 0 .698.08.926.39l.425.577a.96.96 0 0 1 .188.57v1.567a.65.65 0 0 1-.263.518c-1.927 1.41-4.304 2.545-6.725 2.545-2.679 0-5.36-1.544-6.724-2.545a.65.65 0 0 1-.264-.518V9.313c0-.206.065-.405.186-.57l.426-.576c.228-.309.567-.39.928-.39.136-1.555.458-2.665 1.228-3.477 1.468-1.555 3.416-1.712 4.22-1.712m0 4.298c-.166 0-.357.01-.56.03-.072.267-.178.508-.332.662-.612.612-1.35.706-1.745.706-.37 0-.76-.078-1.078-.278-.3.098-.588.241-.607.595-.032.671-.035 1.341-.038 2.011q-.002.504-.008 1.009c.001.195.12.377.297.458 1.446.659 2.813.99 4.071.99 1.256 0 2.623-.331 4.068-.99a.51.51 0 0 0 .297-.458 47 47 0 0 0-.045-3.02h.001c-.018-.356-.309-.496-.61-.595-.318.199-.705.278-1.076.278-.395 0-1.132-.094-1.744-.706-.155-.154-.26-.395-.332-.662a6 6 0 0 0-.559-.03m-1.47 2.4c.313 0 .568.253.568.566V10.9a.569.569 0 0 1-1.137 0V9.852c0-.313.255-.567.568-.567m2.91 0c.314 0 .569.253.569.566V10.9a.569.569 0 0 1-1.137 0V9.852c0-.313.255-.567.569-.567M5.468 4.133c-.611.06-1.126.261-1.389.54-.567.62-.446 2.194-.123 2.526.236.236.682.393 1.163.393.366 0 1.066-.08 1.642-.664.253-.245.41-.856.393-1.476-.018-.498-.157-.91-.367-1.084-.227-.2-.742-.288-1.319-.235m5.084 0c-.576-.053-1.092.034-1.32.235-.209.175-.349.586-.366 1.084-.018.62.14 1.231.393 1.476.577.585 1.276.664 1.643.664.48 0 .925-.157 1.16-.393.324-.332.447-1.905-.121-2.525-.262-.28-.778-.48-1.389-.541M8.01 5.644c-.14 0-.306.01-.49.027.018.096.027.2.036.314 0 .079 0 .158-.009.245.175-.017.323-.017.463-.017s.288 0 .463.017a2 2 0 0 1-.009-.245 3 3 0 0 1 .035-.314 5 5 0 0 0-.489-.027"/></svg>
